X:16
T:After You've Gone
C:Creamer& Layton 1918
N:From the Mandozine website Tabledited by Mike Stangeland
L:1/8
Q:1/4=120
M:4/4
K:Bb
z8 | "Bb"zF GB FG BG | "C7 "cd z"F7"c z4 | "Bb"zF GB FG BG | "C7 "cd z"F7"c z4 | 
"D7"z2 d2 _d2 c2 | "Gm"BA zG z4 | "C7 "z2 c2 =B2 _B2 | "F7"AB zc z4 | "Bb"zF GB FG BG | 
"C7 "cd z"F7"c z4 | "Bb"c2 d2 cB zG | "Eb"z4 z4 | zG AB "Bbdim7"GA Bc | "Bb"dB zF "G7"z4 | 
"C7 "dG z"F7"G z2 F2 | "Bb"B2 B2 "Bb7"A2 _A2 | "Eb"GB cd z4 | "Ebm"zc dc dc z2 | 
"Bb"DF GA z4 | "G7"zG AG AG z2 | "C7 "Gd zd z4 | "F7"Gc zc z4 | "Bb"zF GF BF GF | 
B2 DF "Bb7"z4 | "Eb"GB cd z4 | "Ebm"zc dc dc z2 | "Bb"DF GA z4 | "G7"zG AG AG z2 | 
"Cm"e4 "G7"d4 | "Cm"c_G =Gd "Ebm"z2 c2 | "Bb"z_d =dB "D7"c=B cA | "Gm"B_D =DA "Bbdim7"z2 G2 | 
"Bb"FG Bd z4 | "F7"zE FA c2 d2 | "Bb"dB "Bb7"z6 | "Bb"z8 | z8 | z8 | z8 | 


